static/fa/svgs/solid/person-drowning.svg

<svg xmlns="http://www.w3.org/2000/svg" viewBox="0 0 576 512"><!--! Font Awesome Free 6.1.1 by @fontawesome - https://fontawesome.com License - https://fontawesome.com/license/free (Icons: CC BY 4.0, Fonts: SIL OFL 1.1, Code: MIT License) Copyright 2022 Fonticons, Inc.--><path d="M191.1 96.16c0 52.64 35 99.24 85.2 115.24 40 12.8 81.8 13.7 122.8 5.2l105.8-23.8c17.2-3.9 34.4 6.9 38.3 24.1 3.9 17.2-6.9 34.4-24.1 38.3l-105 23.9c-10.5 2.4-21.2 4.2-31.9 5.4l-17.7 97.6c-13.6-3.2-27.3-9.4-39.7-18-22-15.5-51.5-15.5-73.6 0-17.2 11.8-38 20.4-59.2 20.4-7.3 0-15-1.2-22.8-3.3l21-146.7c-38.7-34.4-63.1-84.3-63.1-138.34V64c0-17.67 15.2-32 32-32 18.6 0 32 14.33 32 32v32.16zm64 30.94c0-34.45 29.6-64 64.9-64 35.3 0 64 29.55 64 64 0 36.2-28.7 64-64 64s-64.9-27.8-64.9-64zM384 416c26.9 0 55.4-10.8 77.4-26.1h.1c11.9-8.5 28-7.8 39.2 1.7 14.3 11.9 32.5 21 50.6 25.2 17.2 4 27.9 21.3 23.9 38.5s-22.1 27.9-38.5 23.9c-24.5-5.8-44.8-16.6-58.2-25-29 15.5-61.5 25.8-94.5 25.8-31.9 0-60.6-9.9-80.4-18.9-5.9-2.6-11.1-5.3-15.6-7.7-4.5 2.4-9.7 5.1-15.6 7.7-19.8 9-48.5 18.9-80.4 18.9-33.9 0-65.5-10.3-94.5-25.8-13.38 8.4-33.71 19.2-58.23 25-17.21 4-34.417-6.7-38.428-23.9-4.011-17.2 6.69-34.5 23.898-38.5 18.1-4.2 36.22-13.3 50.57-25.2 11.15-9.5 27.29-10.2 39.19-1.7h.1c22.1 15.3 50.5 26.1 77.4 26.1 27.5 0 55-10.6 77.5-26.1 11.1-7.9 25.9-7.9 37 0 21.6 15.5 50 26.1 77.5 26.1z"/></svg>

<svg xmlns="http://www.w3.org/2000/svg" viewBox="0 0 576 512"><!--! Font Awesome Free 6.1.1 by @fontawesome - https://fontawesome.com License - https://fontawesome.com/license/free (Icons: CC BY 4.0, Fonts: SIL OFL 1.1, Code: MIT License) Copyright 2022 Fonticons, Inc. --><path d="M191.1 96.16C191.1 148.8 226.1 195.4 276.3 211.4C316.3 224.2 358.1 225.1 399.1 216.6L504.9 192.8C522.1 188.9 539.3 199.7 543.2 216.9C547.1 234.1 536.3 251.3 519.1 255.2L414.1 279.1C403.6 281.5 392.9 283.3 382.2 284.5L364.5 382.1C350.9 378.9 337.2 372.7 324.8 364.1C302.8 348.6 273.3 348.6 251.2 364.1C234 375.9 213.2 384.5 192 384.5C184.7 384.5 177 383.3 169.2 381.2L190.2 234.5C151.5 200.1 127.1 150.2 127.1 96.16V64C127.1 46.33 142.3 32 159.1 32C177.7 32 191.1 46.33 191.1 64V96.16zM255.1 127.1C255.1 92.65 284.7 63.1 320 63.1C355.3 63.1 384 92.65 384 127.1C384 163.3 355.3 191.1 320 191.1C284.7 191.1 255.1 163.3 255.1 127.1zM384 416C410.9 416 439.4 405.2 461.4 389.9L461.5 389.9C473.4 381.4 489.5 382.1 500.7 391.6C515 403.5 533.2 412.6 551.3 416.8C568.5 420.8 579.2 438.1 575.2 455.3C571.2 472.5 553.1 483.2 536.7 479.2C512.2 473.4 491.9 462.6 478.5 454.2C449.5 469.7 417 480 384 480C352.1 480 323.4 470.1 303.6 461.1C297.7 458.5 292.5 455.8 288 453.4C283.5 455.8 278.3 458.5 272.4 461.1C252.6 470.1 223.9 480 192 480C158.1 480 126.5 469.7 97.5 454.2C84.12 462.6 63.79 473.4 39.27 479.2C22.06 483.2 4.853 472.5 .8422 455.3C-3.169 438.1 7.532 420.8 24.74 416.8C42.84 412.6 60.96 403.5 75.31 391.6C86.46 382.1 102.6 381.4 114.5 389.9L114.6 389.9C136.7 405.2 165.1 416 192 416C219.5 416 247 405.4 269.5 389.9C280.6 382 295.4 382 306.5 389.9C328.1 405.4 356.5 416 384 416H384z"/></svg>
